X: 1434
T: Ne Bahar Kaldı
C: Râkım Elkutlu
O: Turkey
F: http://compmusic.upf.edu/node/140
N: beyati--sarki--agiraksak--ne_bahar--rakim_elkutlu
N: makam= beyati
N: form= sarki
N: usul= agiraksak = 9/4
M: 9/4
L: 1/16
K: C _2/4B   
Q: 1/4=69
%%MIDI tuningsystem comma53
A3B c2d2 e2fg fed2 e3d c2e2 d8 z4  | \
w:  ARANAĞME  | 
e2f2 e2f2 a2g2 f2e2 d3c B2d2 c2d2 c4 B4  | 
w:   | 
G2A4a2 a3g g3f f3e e3d d3c B2A2 G4  | \
w:   | 
A3B c2d2 e2fg f2ed c3B B3A A8 z4  | 
w:   | 
A3B c2d2 e2fg fed2 e3d c2e2 d8 z4  | \
w:  ARANAĞME  | 
e2f2 e2f2 a2g2 f2e2 d3c B2d2 c2d2 c4 B4  | 
w:   | 
G2A4a2 a3g g3f f3e e3d d3c B2A2 G4  | \
w:   | 
A3B c2d2 e2fg f2ed c3B B3A A8 z4  | 
w:   | 
z8 z4 c2d2 d8 d2e2 d4 ^c4  | d2e2 d2e2 e2(3^fef d2d2 d4 z4 c'6b2 b2a2  | 
w:  Ne  ba har  kal  |  *  *  *  *  *  *  *  *  dı  ne  gül  ah   | 
a2c'b agfe d4 e2f2 fefg e2d2 d2e2 d2cB c2B2  | 
w:  *  *  *  *  *  *  *  *  ne  de  bül *  *  *  *  *  bül   | 
g2^fg a2gf fed2 e2c2 d6z2 e2=fg fed2 e2c2  | 
w:  *  *  *  *  *  *  *  *  *  se si  var   SAZ  | 
d4 gffe f4 e2g2 f2{g}fe f4 c2d2 e2f2 g2a2  | \
w:  *  *  *  *  *  *  Ne  o  câ *  *  *  *  nân   | 
agfe d2e2 d2c2 g2g2 g^f2_7/8e feed d8 cBAG  | 
w:  *  *  *  *  *  *  *  *  ne  bir_ üm *  *  *  *  *  *  mid   | 
d4 cBAG d4 cBBA A6(3BAB GABc defe _1/4e2d2  | 
w:  *  SAZ *  *  *  *  ne  *  gö *  nül  *  *  *  neş'  | 
g^f_7/8ed c2B2 =ed2c cBBA A8 e2fg fed2 e2c2  | 
w:  *  *  *  *  *  *  *  *  *  e *  si  *  var   SAZ  | 
d4 gffe f4 e2g2 f2{g}fe f4 c2d2 e2f2 g2a2  | \
w:  *  *  *  *  *  *  Ne  o  câ *  *  *  *  nân   | 
agfe d2e2 d2c2 g2g2 g^f2_7/8e feed d8 cBAG  | 
w:  *  *  *  *  *  *  *  *  ne  bir_ üm *  *  *  *  *  *  mid   | 
d4 cBAG d4 cBBA A6(3BAB GABc defe _1/4e2d2  | 
w:  *  SAZ *  *  *  *  ne  *  gö *  nül  *  *  *  neş'  | 
g^f_7/8ed c2B2 =ed2c cBBA A4 f2e2 d2c2 d2e4z2  | 
w:  *  *  *  *  *  *  *  *  *  e *  si  *  SAZ  | 
z20  | z4d2e4e4e6  | A6A4(3c2B2A2A6  | g3^fe2f4g4a2b2a2  | \
w:  |  Çe ke cek   |  ben ce  ha *  *  ya  |  tın  *  *  da ha  bil  | 
a4g2g2^f2f2e2e4d2  | 
w:  mem  *  ne *  si  *  var  a  | 
a8-a2a4a2^g2f2  | f14f4e2  | e6e4g4a6  | \
w:  man   |  *  *  a  |  man   *  SAZ  | 
z4g2a4a4a6  | z4^f2a2g2g2f^ef6  | 
w:  Ne  o  câ nân   |  ne  bir  *  üm *  *  mid   | 
z4d2d4d4d6  | d4e6d2c2B4d2  | d2c2c8-c2c4cB  | \
w:  ne  gö nül  neş'  |  e si  var  *  *  a  |  man  *  *  *  a  | 
B18z2  | z36  | 
w:  man    |  | 
z4 gffe f4 e2g2 f2{g}fe f4 c2d2 e2f2 g2a2  | \
w:  *  *  *  *  *  Ne  o  câ *  *  *  *  nân   | 
agfe d2e2 d2c2 g2g2 g^f2_7/8e feed d8 cBAG  | 
w:  *  *  *  *  *  *  *  *  ne  bir  üm *  *  *  *  *  *  mid   | 
d4 cBAG d4 cBBA A6(3BAB GABc defe _1/4e2d2  | 
w:  *  SAZ *  *  *  *  ne  *  gö *  nül  *  *  *  neş'  | 
g^f_7/8ed c2B2 =ed2c cBBA A6=f2 e2d2 c2B2 A4  | |


